X:520
T:The Bush on the Hill
M:C
L:1/8
B:O'Neill's 520
N:"Moderate" "collected by F. O'Neill"
Z:Transcribed by Dave Wooldridge
K:G
G \
|dBAG g2 fe|dBAG B2 AB|cdef gfed|f3 e d2 z G|
d2 cB e3 d|cBAG A3 B|cdef gdec|B2 AG G2 z||
G \
|gacb gfed|BABc B3 d|efga gfed|Bdgf e2 ge|
dBAG Bdge|dBAG BA3 B|cBcd ~efHge|dBAG G3||
